X:445
%%topmargin 3cm
T:Master Pinto
C:Nath. Gow
O:Scotland
B:Keith Norman MacDonald : "The Skye collection of the best reels & strathspeys extant" : 1887
Z:Ralph Palmer
R:Air
M:2/4
L:1/8
K:D phrygian
"Slowly"Dz/E/ (G/F/).E/.D/ | Bz/F/ (G/F/).E/.D/ | Dz/E/ (G/F/).E/.D/ | BDFd | Dz/E/ (G/F/).E/.D/ |
Bz/F/ (G/F/).E/.D/ | Cc Tc>d | e/d/c/B/ A/G/F/E/ | Dz/E/ (G/F/).E/.D/ | Bz/F/ (G/F/).E/.D/ | Dz/E/ (G/F/).E/.D/ |
BDFd | Dz/E/ (G/F/).E/.D/ | Bz/F/ (G/F/).E/.D/ | Cc Tc>d | e/d/c/B/ A/B/c/A/ || (B/c/)(d/e/) f>B | dB (g/f/)(e/d/) |
(B/c/)(d/e/) f>B | dBdB | d>B (g/f/)(e/d/) | (c/d/)(e/f/) gc | eceg | (B/c/)(d/e/) g>B |
dBfd | (B/c/d/e/) fb | (ab) (fb) | (3gbg (3fbf | (3ege (3dfd | c/d/e/f/ g>f | e/d/c/B/ A/G/F/E/ |]
